packages/icons/svgs/solid/Source=calendar-date.svg

<svg width="12" height="12" viewBox="0 0 12 12" fill="none" xmlns="http://www.w3.org/2000/svg">
<g clip-path="url(#clip0_1109_744)">
<path d="M10.5 2.25H9.75V0.75C9.75 0.551088 9.67098 0.360322 9.53033 0.21967C9.38968 0.0790176 9.19891 0 9 0C8.80109 0 8.61032 0.0790176 8.46967 0.21967C8.32902 0.360322 8.25 0.551088 8.25 0.75V2.25H3.75V0.75C3.75 0.551088 3.67098 0.360322 3.53033 0.21967C3.38968 0.0790176 3.19891 0 3 0C2.80109 0 2.61032 0.0790176 2.46967 0.21967C2.32902 0.360322 2.25 0.551088 2.25 0.75V2.25H1.5C1.10218 2.25 0.720644 2.40804 0.43934 2.68934C0.158035 2.97064 0 3.35218 0 3.75L0 10.5C0 10.8978 0.158035 11.2794 0.43934 11.5607C0.720644 11.842 1.10218 12 1.5 12H10.5C10.8978 12 11.2794 11.842 11.5607 11.5607C11.842 11.2794 12 10.8978 12 10.5V3.75C12 3.35218 11.842 2.97064 11.5607 2.68934C11.2794 2.40804 10.8978 2.25 10.5 2.25ZM1.5 10.5V5.25H10.5V10.5H1.5Z" fill="black"/>
</g>
<defs>
<clipPath id="clip0_1109_744">
<rect width="12" height="12" fill="white"/>
</clipPath>
</defs>
</svg>

<svg xmlns="http://www.w3.org/2000/svg" width="12" height="12" viewBox="0 0 12 12"><g clip-path="url(#a)"><path d="M10.5 2.25h-.75V.75a.75.75 0 0 0-1.5 0v1.5h-4.5V.75a.75.75 0 0 0-1.5 0v1.5H1.5A1.5 1.5 0 0 0 0 3.75v6.75A1.5 1.5 0 0 0 1.5 12h9a1.5 1.5 0 0 0 1.5-1.5V3.75a1.5 1.5 0 0 0-1.5-1.5Zm-9 8.25V5.25h9v5.25h-9Z"/></g><defs><clipPath id="a"><path fill="#fff" d="M0 0h12v12H0z"/></clipPath></defs></svg>
